X:1
T:Title
%%score { ( 1 4 ) | ( 2 3 ) }
L:1/8
M:4/4
K:F
V:1 treble nm="Grand Piano"
V:4 treble 
V:2 bass 
V:3 bass 
V:1
 z4 z2[Q:1/4=100] F>G | A2 A2 A2 F>A | c2 [Ec]2 c2 c>d | c2 A2 F2 E>F | [EG]6 z2 | %5
 A2 c2 c2 [FA]>[FA] |[M:9/8] [FB]2 [Fd]- [Fd] [Fd]2- [Fd][Fd]>[Fd] | %7
[M:4/4] [CFc]2 [DF]2 [CFA]2 [B,EG]2 |[M:3/4] [A,F]6 |[M:1/4] [A,F]>[A,F] |[M:4/4] [Fd]4 z4 | %11
 [Fc]4 z4 | G2 G>G e2 d>d | c6 z2 | A2 A2 c2 [FA]>[FA] | %15
[M:9/8] [FB]2 [Fd]- [Fd] [Fd]2- [Fd][Fd]>[Fd] |[M:4/4] [CFc]2 [DF]>[DFG] [CFA]2 [B,EG]2 | %17
[M:3/4] [A,F]6 |] %18
V:2
 z4 z2 [F,A,]>[F,B,F] | [F,CF]2 [F,CF]2 [F,CF]2 [F,A,C]>[F,CF] | %2
 [F,A,F]2 [C,B,]2 [F,A,F]2 [F,A,F]>[F,B,F] | [F,A,F]2 [F,CF]2 [A,C]2 C->[F,A,C] | C4 z4 | %5
 [F,CF]2 [F,A,F]2 [F,A,F]2 [_E,C]>[E,C] | %6
[M:9/8] [D,B,]2 [B,,B,]- [B,,B,] [B,,B,]2- [B,,B,][B,,B,]>[B,,B,] |[M:4/4] A,,2 z z/ G/ C,2 C,2 | %8
[M:3/4] F,6 |[M:1/4] F,>F, |[M:4/4] [B,,B,]>B,, B,,2 B,,2 z z/ B,/ | %11
 [F,A,]>F, F,2[K:treble] [F,CF]2 [F,CF]>[F,CF] | %12
 [G,CE]2 [G,CE]>[G,CE] [G,=B,G]2[K:bass] [G,,B,F]>[G,,B,F] | G,2 A,2 B,2 [C,C]>[C,C] | %14
 [F,CF]2 [F,CF]2 [F,A,F]2 [_E,C]>[E,C] | %15
[M:9/8] [D,B,]2 [B,,B,]- [B,,B,] [B,,B,]2- [B,,B,][B,,B,]>[B,,B,] |[M:4/4] A,,2 B,,>B,, C,2 C,2 | %17
[M:3/4] F,6 |] %18
V:3
 x8 | x8 | x8 | z4 z2 [G,B,]2 | C,6 [F,A,]>[F,B,F] | x8 |[M:9/8] x9 |[M:4/4] z2 B,,2 z4 | %8
[M:3/4] x6 |[M:1/4] x2 |[M:4/4] z4 z2 B,,2 | x4[K:treble] x4 | x6[K:bass] x2 | C,6 z2 | x8 | %15
[M:9/8] x9 |[M:4/4] x8 |[M:3/4] x6 |] %18
V:4
 x8 | x8 | x8 | x8 | z4 B,2 F>G | x8 |[M:9/8] x9 |[M:4/4] x8 |[M:3/4] x6 |[M:1/4] x2 | %10
[M:4/4] z z/ B,/ B,2 [DFB]2 [DFB]>[Fd] | z z/ A,/ A,2 A2 A>A | x8 | E2 F2 G2 [Ec]>[EB] | x8 | %15
[M:9/8] x9 |[M:4/4] x8 |[M:3/4] x6 |] %18

